; generated by Slic3r 1.3.0 on 2020-04-11 at 00:17:20

; external perimeters extrusion width = 0.55mm (4.37mm^3/s)
; perimeters extrusion width = 0.70mm (11.44mm^3/s)
; infill extrusion width = 0.62mm (13.45mm^3/s)
; solid infill extrusion width = 0.70mm (3.81mm^3/s)
; top infill extrusion width = 0.70mm (2.86mm^3/s)

M107
M104 S200 ; set temperature
G28 ; home all axes
G1 Z5 F5000 ; lift nozzle

; Filament gcode

M109 S200 ; set temperature and wait for it to be reached
G21 ; set units to millimeters
G90 ; use absolute coordinates
M82 ; use absolute distances for extrusion
G92 E0
G1 Z0.350 F7800.000
G1 E-2.00000 F2400.00000
G92 E0
G1 X42.773 Y48.253 F7800.000
G1 E2.00000 F2400.00000
G1 F1800
G1 X44.526 Y46.774 E2.07096
G1 X46.678 Y45.981 E2.14192
G1 X47.858 Y45.875 E2.17858
G1 X152.142 Y45.875 E5.40528
G1 X154.401 Y46.272 E5.47624
G1 X156.389 Y47.415 E5.54720
G1 X157.868 Y49.168 E5.61817
G1 X158.661 Y51.320 E5.68913
G1 X158.767 Y52.500 E5.72578
G1 X158.767 Y147.500 E8.66520
G1 X158.370 Y149.759 E8.73617
G1 X157.227 Y151.747 E8.80713
G1 X155.474 Y153.226 E8.87809
G1 X153.322 Y154.019 E8.94905
G1 X152.142 Y154.125 E8.98570
G1 X47.858 Y154.125 E12.21241
G1 X45.599 Y153.728 E12.28337
G1 X43.611 Y152.585 E12.35433
G1 X42.132 Y150.832 E12.42529
G1 X41.339 Y148.680 E12.49626
G1 X41.233 Y147.500 E12.53291
G1 X41.233 Y52.500 E15.47233
G1 X41.630 Y50.241 E15.54329
G1 X42.736 Y48.318 E15.61194
G1 E13.61194 F2400.00000
G92 E0
G1 X114.009 Y138.548 F7800.000
G1 E2.00000 F2400.00000
G1 F1800
G1 X114.609 Y138.222 E2.02112
G1 X115.239 Y138.024 E2.04158
G1 X115.628 Y137.962 E2.05375
G1 X116.019 Y137.941 E2.06588
G1 X116.658 Y138.003 E2.08573
G1 X117.040 Y138.098 E2.09791
G1 X117.410 Y138.233 E2.11010
G1 X117.991 Y138.548 E2.13056
G1 X118.518 Y138.982 E2.15167
G1 X118.952 Y139.509 E2.17279
G1 X119.267 Y140.090 E2.19325
G1 X119.402 Y140.460 E2.20544
G1 X119.497 Y140.842 E2.21762
G1 X119.561 Y141.500 E2.23807
G1 X119.497 Y142.160 E2.25858
G1 X119.402 Y142.540 E2.27071
G1 X119.267 Y142.910 E2.28289
G1 X118.952 Y143.491 E2.30335
G1 X118.518 Y144.018 E2.32446
G1 X117.991 Y144.452 E2.34558
G1 X117.410 Y144.767 E2.36604
G1 X117.040 Y144.902 E2.37822
G1 X116.660 Y144.997 E2.39035
G1 X116.000 Y145.061 E2.41086
G1 X115.342 Y144.997 E2.43131
G1 X114.960 Y144.902 E2.44349
G1 X114.590 Y144.767 E2.45568
G1 X114.009 Y144.452 E2.47614
G1 X113.482 Y144.018 E2.49726
G1 X113.048 Y143.491 E2.51837
G1 X112.733 Y142.910 E2.53883
G1 X112.598 Y142.540 E2.55102
G1 X112.503 Y142.158 E2.56320
G1 X112.439 Y141.500 E2.58365
G1 X112.503 Y140.842 E2.60411
G1 X112.598 Y140.460 E2.61629
G1 X112.733 Y140.090 E2.62847
G1 X113.048 Y139.509 E2.64893
G1 X113.482 Y138.982 E2.67005
G1 X113.951 Y138.596 E2.68885
G1 X114.360 Y139.069 F7800.000
G1 F1800
G1 X114.854 Y138.800 E2.70624
G1 X115.383 Y138.634 E2.72340
G1 X115.693 Y138.584 E2.73313
G1 X116.006 Y138.568 E2.74281
G1 X116.552 Y138.620 E2.75978
G1 X116.857 Y138.696 E2.76951
G1 X117.153 Y138.804 E2.77925
G1 X117.640 Y139.069 E2.79640
G1 X118.074 Y139.426 E2.81380
G1 X118.431 Y139.860 E2.83119
G1 X118.696 Y140.347 E2.84835
G1 X118.804 Y140.643 E2.85809
G1 X118.880 Y140.948 E2.86782
G1 X118.933 Y141.500 E2.88498
G1 X118.879 Y142.054 E2.90218
G1 X118.804 Y142.357 E2.91186
G1 X118.696 Y142.653 E2.92160
G1 X118.431 Y143.140 E2.93875
G1 X118.074 Y143.574 E2.95615
G1 X117.640 Y143.931 E2.97354
G1 X117.153 Y144.196 E2.99070
G1 X116.857 Y144.304 E3.00043
G1 X116.554 Y144.379 E3.01012
G1 X116.000 Y144.433 E3.02732
G1 X115.448 Y144.380 E3.04448
G1 X115.143 Y144.304 E3.05421
G1 X114.847 Y144.196 E3.06395
G1 X114.360 Y143.931 E3.08110
G1 X113.926 Y143.574 E3.09850
G1 X113.569 Y143.140 E3.11589
G1 X113.304 Y142.653 E3.13305
G1 X113.196 Y142.357 E3.14279
G1 X113.120 Y142.052 E3.15252
G1 X113.067 Y141.500 E3.16967
G1 X113.120 Y140.948 E3.18683
G1 X113.196 Y140.643 E3.19656
G1 X113.304 Y140.347 E3.20630
G1 X113.569 Y139.860 E3.22345
G1 X113.926 Y139.426 E3.24085
G1 X114.302 Y139.116 E3.25592
G1 X114.360 Y139.069 F7800.000
G1 E1.25592 F2400.00000
G92 E0
G1 X111.600 Y142.481 F7800.000
G1 E2.00000 F2400.00000
G1 F1800
G1 X111.929 Y142.440 E2.01026
G1 X111.999 Y142.723 E2.01928
G1 X112.161 Y143.167 E2.03392
G1 X112.528 Y143.842 E2.05767
G1 X113.038 Y144.462 E2.08251
G1 X113.658 Y144.972 E2.10735
G1 X114.333 Y145.339 E2.13111
G1 X114.777 Y145.501 E2.14575
G1 X115.060 Y145.571 E2.15476
G1 X115.019 Y145.900 E2.16503
G1 X113.734 Y145.900 E2.20481
G1 X111.600 Y143.766 E2.29818
G1 X111.600 Y142.556 E2.33564
G1 E0.33564 F2400.00000
G92 E0
G1 X128.400 Y139.100 F7800.000
G1 E2.00000 F2400.00000
G1 F1800
G1 X128.400 Y65.900 E4.26489
G1 X148.742 Y65.900 E4.89429
G1 X148.742 Y139.100 E7.15918
G1 X128.475 Y139.100 E7.78627
G1 X129.025 Y138.475 F7800.000
G1 F1800
G1 X129.025 Y66.525 E10.01249
G1 X148.117 Y66.525 E10.60322
G1 X148.117 Y138.475 E12.82944
G1 X129.100 Y138.475 E13.41786
G1 X129.650 Y137.850 F7800.000
G1 F1800
G1 X129.650 Y67.150 E15.60541
G1 X147.492 Y67.150 E16.15747
G1 X147.492 Y137.850 E18.34502
G1 X129.725 Y137.850 E18.89477
G1 X129.198 Y138.064 F7800.000
G1 E16.89477 F2400.00000
G92 E0
G1 X116.940 Y145.571 F7800.000
G1 E2.00000 F2400.00000
G1 F1800
G1 X117.223 Y145.500 E2.00902
G1 X117.667 Y145.339 E2.02365
G1 X118.342 Y144.972 E2.04741
G1 X118.962 Y144.462 E2.07225
G1 X119.472 Y143.842 E2.09709
G1 X119.839 Y143.167 E2.12085
G1 X120.000 Y142.723 E2.13548
G1 X120.114 Y142.266 E2.15006
G1 X120.188 Y141.500 E2.17386
G1 X120.115 Y140.736 E2.19761
G1 X120.001 Y140.277 E2.21224
G1 X119.839 Y139.833 E2.22688
G1 X119.472 Y139.158 E2.25064
G1 X118.962 Y138.538 E2.27548
G1 X118.342 Y138.028 E2.30032
G1 X117.667 Y137.661 E2.32408
G1 X117.223 Y137.499 E2.33872
G1 X116.764 Y137.385 E2.35335
G1 X116.033 Y137.315 E2.37607
G1 X115.562 Y137.340 E2.39066
G1 X115.096 Y137.414 E2.40527
G1 X114.364 Y137.644 E2.42903
G1 X113.658 Y138.028 E2.45387
G1 X113.038 Y138.538 E2.47871
G1 X112.528 Y139.158 E2.50355
G1 X112.161 Y139.833 E2.52731
G1 X111.999 Y140.277 E2.54195
G1 X111.929 Y140.560 E2.55096
G1 X111.600 Y140.519 E2.56123
G1 X111.600 Y64.481 E4.91397
G1 X111.929 Y64.440 E4.92423
G1 X111.999 Y64.723 E4.93324
G1 X112.161 Y65.167 E4.94788
G1 X112.528 Y65.842 E4.97164
G1 X113.016 Y66.435 E4.99539
G1 X113.367 Y66.751 E5.01002
G1 X113.750 Y67.029 E5.02465
G1 X114.431 Y67.383 E5.04841
G1 X115.201 Y67.611 E5.07325
G1 X116.000 Y67.688 E5.09809
G1 X116.799 Y67.611 E5.12294
G1 X117.535 Y67.393 E5.14669
G1 X117.964 Y67.194 E5.16132
G1 X118.369 Y66.950 E5.17596
G1 X118.962 Y66.462 E5.19971
G1 X119.472 Y65.842 E5.22455
G1 X119.839 Y65.167 E5.24831
G1 X120.000 Y64.723 E5.26294
G1 X120.114 Y64.266 E5.27752
G1 X120.188 Y63.500 E5.30132
G1 X120.115 Y62.736 E5.32507
G1 X120.001 Y62.277 E5.33971
G1 X119.839 Y61.833 E5.35435
G1 X119.472 Y61.158 E5.37810
G1 X118.962 Y60.538 E5.40295
G1 X118.369 Y60.050 E5.42670
G1 X117.964 Y59.806 E5.44133
G1 X117.535 Y59.607 E5.45596
G1 X116.799 Y59.388 E5.47973
G1 X116.033 Y59.315 E5.50354
G1 X115.563 Y59.340 E5.51811
G1 X115.096 Y59.414 E5.53274
G1 X114.363 Y59.645 E5.55649
G1 X113.658 Y60.028 E5.58133
G1 X113.038 Y60.538 E5.60617
G1 X112.528 Y61.158 E5.63102
G1 X112.161 Y61.833 E5.65477
G1 X111.999 Y62.277 E5.66941
G1 X111.929 Y62.560 E5.67842
G1 X111.600 Y62.519 E5.68869
G1 X111.600 Y54.100 E5.94920
G1 X150.543 Y54.100 E7.15414
G1 X150.543 Y145.900 E9.99457
G1 X116.981 Y145.900 E11.03302
G1 X116.949 Y145.645 E11.04096
G1 E9.04096 F2400.00000
G92 E0
G1 X116.000 Y67.061 F7800.000
G1 E2.00000 F2400.00000
G1 F1800
G1 X115.321 Y66.995 E2.02112
G1 X114.666 Y66.801 E2.04224
G1 X114.080 Y66.496 E2.06270
G1 X113.761 Y66.265 E2.07488
G1 X113.469 Y66.001 E2.08706
G1 X113.048 Y65.491 E2.10751
G1 X112.733 Y64.910 E2.12797
G1 X112.598 Y64.540 E2.14016
G1 X112.503 Y64.158 E2.15234
G1 X112.439 Y63.500 E2.17279
G1 X112.503 Y62.842 E2.19325
G1 X112.598 Y62.460 E2.20543
G1 X112.733 Y62.090 E2.21761
G1 X113.048 Y61.509 E2.23807
G1 X113.482 Y60.982 E2.25919
G1 X114.009 Y60.548 E2.28031
G1 X114.609 Y60.222 E2.30142
G1 X115.239 Y60.024 E2.32188
G1 X115.628 Y59.962 E2.33406
G1 X116.019 Y59.941 E2.34619
G1 X116.679 Y60.005 E2.36670
G1 X117.313 Y60.193 E2.38716
G1 X117.670 Y60.359 E2.39934
G1 X118.008 Y60.562 E2.41152
G1 X118.518 Y60.982 E2.43198
G1 X118.952 Y61.509 E2.45310
G1 X119.267 Y62.090 E2.47355
G1 X119.402 Y62.460 E2.48574
G1 X119.497 Y62.842 E2.49792
G1 X119.561 Y63.500 E2.51838
G1 X119.497 Y64.160 E2.53888
G1 X119.402 Y64.540 E2.55101
G1 X119.267 Y64.910 E2.56319
G1 X118.952 Y65.491 E2.58365
G1 X118.518 Y66.018 E2.60477
G1 X118.008 Y66.438 E2.62523
G1 X117.670 Y66.641 E2.63741
G1 X117.313 Y66.807 E2.64959
G1 X116.679 Y66.995 E2.67005
G1 X116.075 Y67.053 E2.68884
G1 X116.000 Y66.433 F7800.000
G1 F1800
G1 X115.440 Y66.379 E2.70624
G1 X114.901 Y66.219 E2.72364
G1 X114.409 Y65.963 E2.74079
G1 X114.155 Y65.778 E2.75052
G1 X113.921 Y65.568 E2.76026
G1 X113.569 Y65.140 E2.77741
G1 X113.304 Y64.653 E2.79457
G1 X113.196 Y64.357 E2.80431
G1 X113.120 Y64.052 E2.81404
G1 X113.067 Y63.500 E2.83119
G1 X113.120 Y62.948 E2.84835
G1 X113.196 Y62.643 E2.85808
G1 X113.304 Y62.347 E2.86782
G1 X113.569 Y61.860 E2.88497
G1 X113.926 Y61.426 E2.90237
G1 X114.360 Y61.069 E2.91976
G1 X114.854 Y60.800 E2.93716
G1 X115.383 Y60.634 E2.95432
G1 X115.694 Y60.584 E2.96405
G1 X116.006 Y60.568 E2.97373
G1 X116.560 Y60.621 E2.99094
G1 X117.091 Y60.779 E3.00810
G1 X117.376 Y60.911 E3.01783
G1 X117.646 Y61.073 E3.02756
G1 X118.074 Y61.426 E3.04472
G1 X118.431 Y61.860 E3.06211
G1 X118.696 Y62.347 E3.07927
G1 X118.804 Y62.643 E3.08900
G1 X118.880 Y62.948 E3.09874
G1 X118.933 Y63.500 E3.11589
G1 X118.879 Y64.054 E3.13310
G1 X118.804 Y64.357 E3.14278
G1 X118.696 Y64.653 E3.15251
G1 X118.431 Y65.140 E3.16967
G1 X118.074 Y65.574 E3.18707
G1 X117.646 Y65.927 E3.20422
G1 X117.376 Y66.089 E3.21396
G1 X117.091 Y66.221 E3.22369
G1 X116.560 Y66.379 E3.24085
G1 X116.075 Y66.426 E3.25592
G1 X116.000 Y66.433 F7800.000
G1 E1.25592 F2400.00000
G92 E0
G1 X110.975 Y53.475 F7800.000
G1 E2.00000 F2400.00000
G1 F1800
G1 X151.167 Y53.475 E3.24361
G1 X151.167 Y146.525 E6.12271
G1 X113.475 Y146.525 E7.28896
G1 X110.975 Y144.025 E7.39836
G1 X110.975 Y53.550 E10.19778
G1 X110.350 Y52.850 F7800.000
G1 F1800
G1 X151.792 Y52.850 E11.48006
G1 X151.792 Y147.150 E14.39782
G1 X113.216 Y147.150 E15.59142
G1 X110.350 Y144.284 E15.71684
G1 X110.350 Y52.925 E18.54360
G1 X110.786 Y53.096 F7800.000
G1 E16.54360 F2400.00000
G92 E0
G1 X111.982 Y54.968 F7800.000
G1 E2.00000 F2400.00000
G1 F1800
G1 X112.468 Y54.482 E2.02129
G1 X113.352 Y54.482 E2.04867
G1 X111.982 Y55.852 E2.10870
G1 X111.982 Y56.737 E2.13609
G1 X114.237 Y54.482 E2.23485
G1 X115.121 Y54.482 E2.26224
G1 X111.982 Y57.621 E2.39974
G1 X111.982 Y58.506 E2.42712
G1 X116.006 Y54.482 E2.60335
G1 X116.890 Y54.482 E2.63074
G1 X111.982 Y59.390 E2.84570
G1 X111.982 Y60.275 E2.87308
G1 X117.775 Y54.482 E3.12677
G1 X118.659 Y54.482 E3.15416
G1 X113.778 Y59.362 E3.36789
G1 X113.875 Y59.310 E3.37130
G1 X114.709 Y59.047 E3.39837
G1 X115.029 Y58.996 E3.40841
G1 X119.543 Y54.482 E3.60611
G1 X120.428 Y54.482 E3.63349
G1 X115.963 Y58.947 E3.82904
G1 X116.676 Y59.015 E3.85121
G1 X116.755 Y59.039 E3.85378
G1 X121.312 Y54.482 E4.05336
G1 X122.197 Y54.482 E4.08074
G1 X117.438 Y59.241 E4.28916
G1 X118.047 Y59.516 E4.30986
G1 X123.081 Y54.482 E4.53034
G1 X123.966 Y54.482 E4.55773
G1 X118.585 Y59.862 E4.79334
G1 X119.070 Y60.261 E4.81280
G1 X124.850 Y54.482 E5.06591
G1 X125.735 Y54.482 E5.09330
G1 X119.486 Y60.730 E5.36693
G1 X119.750 Y61.050 E5.37977
G1 X119.856 Y61.245 E5.38664
G1 X126.619 Y54.482 E5.68282
G1 X127.503 Y54.482 E5.71021
G1 X120.167 Y61.818 E6.03149
G1 X120.391 Y62.478 E6.05309
G1 X128.388 Y54.482 E6.40329
G1 X129.272 Y54.482 E6.43067
G1 X120.524 Y63.230 E6.81380
G1 X120.573 Y63.743 E6.82976
G1 X120.539 Y64.100 E6.84085
G1 X130.157 Y54.482 E7.26204
G1 X131.041 Y54.482 E7.28943
G1 X120.346 Y65.177 E7.75782
G1 E5.75782 F2400.00000
G92 E0
G1 X112.275 Y67.056 F7800.000
G1 E2.00000 F2400.00000
G1 F1800
G1 X111.982 Y66.700 E2.01430
G1 X111.982 Y67.350 E2.03443
G1 X112.761 Y66.570 E2.06858
G1 X113.220 Y66.996 E2.08796
G1 X111.982 Y68.235 E2.14218
G1 X111.982 Y69.119 E2.16957
G1 X113.741 Y67.359 E2.24662
G1 X114.323 Y67.662 E2.26693
G1 X111.982 Y70.003 E2.36946
G1 X111.982 Y70.888 E2.39685
G1 X114.985 Y67.884 E2.52838
G1 X115.324 Y67.985 E2.53933
G1 X115.730 Y68.024 E2.55196
G1 X111.982 Y71.772 E2.71612
G1 X111.982 Y72.657 E2.74350
G1 X116.599 Y68.039 E2.94573
G1 X117.162 Y67.985 E2.96323
G1 X117.696 Y67.826 E2.98049
G1 X111.982 Y73.541 E3.23076
G1 X111.982 Y74.426 E3.25814
G1 X131.926 Y54.482 E4.13154
G1 X132.810 Y54.482 E4.15893
G1 X111.982 Y75.310 E5.07106
G1 X111.982 Y76.194 E5.09845
G1 X133.694 Y54.482 E6.04932
G1 X134.579 Y54.482 E6.07670
G1 X111.982 Y77.079 E7.06630
G1 X111.982 Y77.963 E7.09369
G1 X135.463 Y54.482 E8.12202
G1 X136.348 Y54.482 E8.14940
G1 X111.982 Y78.848 E9.21647
G1 X111.982 Y79.732 E9.24385
G1 X137.232 Y54.482 E10.34964
G1 X138.117 Y54.482 E10.37703
G1 X111.982 Y80.617 E11.52156
G1 X111.982 Y81.501 E11.54894
G1 X127.532 Y65.950 E12.22995
G1 X127.532 Y65.518 E12.24333
G1 X127.964 Y65.518 E12.25671
G1 X139.001 Y54.482 E12.74004
G1 X139.886 Y54.482 E12.76742
G1 X128.849 Y65.518 E13.25075
G1 X129.733 Y65.518 E13.27814
G1 X140.770 Y54.482 E13.76147
G1 X141.654 Y54.482 E13.78886
G1 X130.618 Y65.518 E14.27219
G1 X131.502 Y65.518 E14.29958
G1 X142.539 Y54.482 E14.78291
G1 X143.423 Y54.482 E14.81029
G1 X132.386 Y65.518 E15.29362
G1 X133.271 Y65.518 E15.32101
G1 X144.308 Y54.482 E15.80434
G1 X145.192 Y54.482 E15.83173
G1 X134.155 Y65.518 E16.31506
G1 X135.040 Y65.518 E16.34245
G1 X146.077 Y54.482 E16.82578
G1 X146.961 Y54.482 E16.85317
G1 X135.924 Y65.518 E17.33650
G1 X136.809 Y65.518 E17.36388
G1 X147.845 Y54.482 E17.84721
G1 X148.730 Y54.482 E17.87460
G1 X137.693 Y65.518 E18.35793
G1 X138.578 Y65.518 E18.38532
G1 X149.614 Y54.482 E18.86865
G1 X150.161 Y54.482 E18.88557
G1 X150.161 Y54.820 E18.89604
G1 X139.462 Y65.518 E19.36456
G1 X140.346 Y65.518 E19.39195
G1 X150.161 Y55.704 E19.82174
G1 X150.161 Y56.589 E19.84913
G1 X141.231 Y65.518 E20.24019
G1 X142.115 Y65.518 E20.26758
G1 X150.161 Y57.473 E20.61991
G1 X150.161 Y58.357 E20.64730
G1 X143.000 Y65.518 E20.96089
G1 X143.884 Y65.518 E20.98828
G1 X150.161 Y59.242 E21.26315
G1 X150.161 Y60.126 E21.29053
G1 X144.769 Y65.518 E21.52667
G1 X145.653 Y65.518 E21.55406
G1 X150.161 Y61.011 E21.75146
G1 X150.161 Y61.895 E21.77885
G1 X146.537 Y65.518 E21.93752
G1 X147.422 Y65.518 E21.96490
G1 X150.161 Y62.780 E22.08484
G1 X150.161 Y63.664 E22.11223
G1 X148.306 Y65.518 E22.19343
G1 X149.124 Y65.518 E22.21875
G1 X149.124 Y65.585 E22.22082
G1 X150.161 Y64.548 E22.26622
G1 X150.161 Y65.433 E22.29361
G1 X149.124 Y66.470 E22.33901
G1 X149.124 Y67.354 E22.36640
G1 X150.161 Y66.317 E22.41180
G1 X150.161 Y67.202 E22.43919
G1 X149.124 Y68.239 E22.48459
G1 X149.124 Y69.123 E22.51198
G1 X150.161 Y68.086 E22.55738
G1 X150.161 Y68.971 E22.58477
G1 X149.124 Y70.007 E22.63017
G1 X149.124 Y70.892 E22.65756
G1 X150.161 Y69.855 E22.70297
G1 X150.161 Y70.740 E22.73035
G1 X149.124 Y71.776 E22.77576
G1 X149.124 Y72.661 E22.80314
G1 X150.161 Y71.624 E22.84855
G1 X150.161 Y72.508 E22.87593
G1 X149.124 Y73.545 E22.92134
G1 X149.124 Y74.430 E22.94872
G1 X150.161 Y73.393 E22.99413
G1 X150.161 Y74.277 E23.02151
G1 X149.124 Y75.314 E23.06692
G1 X149.124 Y76.198 E23.09430
G1 X150.161 Y75.162 E23.13971
G1 X150.161 Y76.046 E23.16709
G1 X149.124 Y77.083 E23.21250
G1 X149.124 Y77.967 E23.23988
G1 X150.161 Y76.931 E23.28529
G1 X150.161 Y77.815 E23.31267
G1 X149.124 Y78.852 E23.35808
G1 X149.124 Y79.736 E23.38546
G1 X150.161 Y78.699 E23.43087
G1 X150.161 Y79.584 E23.45825
G1 X149.124 Y80.621 E23.50366
G1 X149.124 Y81.505 E23.53104
G1 X150.161 Y80.468 E23.57645
G1 X150.161 Y81.353 E23.60383
G1 X149.124 Y82.390 E23.64924
G1 X149.124 Y83.274 E23.67662
G1 X150.161 Y82.237 E23.72203
G1 X150.161 Y83.122 E23.74941
G1 X149.124 Y84.158 E23.79482
G1 X149.124 Y85.043 E23.82220
G1 X150.161 Y84.006 E23.86761
G1 X150.161 Y84.891 E23.89499
G1 X149.124 Y85.927 E23.94040
G1 X149.124 Y86.812 E23.96778
G1 X150.161 Y85.775 E24.01319
G1 X150.161 Y86.659 E24.04057
