; generated by PrusaSlicer 2.2.0 on 2020-04-11 at 00:03:40 UTC

; 

; external perimeters extrusion width = 0.45mm
; perimeters extrusion width = 0.45mm
; infill extrusion width = 0.45mm
; solid infill extrusion width = 0.45mm
; top infill extrusion width = 0.40mm
; first layer extrusion width = 0.42mm

M73 P0 R128
M73 Q0 S129
M201 X1000 Y1000 Z1000 E5000 ; sets maximum accelerations, mm/sec^2
M203 X200 Y200 Z12 E120 ; sets maximum feedrates, mm/sec
M204 P1250 R1250 T1250 ; sets acceleration (P, T) and retract acceleration (R), mm/sec^2
M205 X8.00 Y8.00 Z0.40 E4.50 ; sets the jerk limits, mm/sec
M205 S0 T0 ; sets the minimum extruding and travel feed rate, mm/sec
M107
M862.3 P "MK3S" ; printer model check
M862.1 P0.4 ; nozzle diameter check
M115 U3.8.1 ; tell printer latest fw version
G90 ; use absolute coordinates
M83 ; extruder relative mode
M104 S216 ; set extruder temp
M140 S70 ; set bed temp
M190 S70 ; wait for bed temp
M109 S216 ; wait for extruder temp
G28 W ; home all without mesh bed level
G80 ; mesh bed leveling
G1 Y-3.0 F1000.0 ; go outside print area
G92 E0.0
G1 X60.0 E9.0 F1000.0 ; intro line
M73 Q0 S129
M73 P0 R128
G1 X100.0 E12.5 F1000.0 ; intro line
G92 E0.0
M221 S95
G21 ; set units to millimeters
G90 ; use absolute coordinates
M83 ; use relative distances for extrusion
M900 K30 ; Filament gcode
;BEFORE_LAYER_CHANGE
G92 E0.0
;0.2


G1 E-0.80000 F2100.00000
G1 Z0.600 F10800.000
;AFTER_LAYER_CHANGE
;0.2
G1 X9.569 Y13.381
G1 Z0.200
G1 E0.80000 F2100.00000
M204 S1000
G1 F1200.000
G1 X10.338 Y12.856 E0.02919
G1 X11.249 Y12.666 E0.02919
G1 X101.623 Y12.666 E2.83361
G1 X102.521 Y12.844 E0.02872
G1 X103.286 Y13.348 E0.02872
G1 X103.803 Y14.105 E0.02872
G1 X103.996 Y15.000 E0.02872
G1 X103.996 Y105.062 E2.82383
G1 X103.817 Y105.949 E0.02837
G1 X103.319 Y106.704 E0.02837
G1 X102.862 Y107.069 E0.01835
G1 X102.329 Y107.312 E0.01835
G1 X91.994 Y110.241 E0.33681
G1 X85.027 Y111.914 E0.22467
G1 X80.297 Y112.833 E0.15106
G1 X73.207 Y113.893 E0.22479
G1 X68.419 Y114.397 E0.15094
G1 X63.590 Y114.734 E0.15179
G1 X56.446 Y114.920 E0.22407
G1 X51.564 Y114.833 E0.15308
G1 X44.473 Y114.397 E0.22277
G1 X39.658 Y113.890 E0.15179
G1 X32.590 Y112.833 E0.22407
G1 X27.861 Y111.914 E0.15105
G1 X20.894 Y110.240 E0.22468
G1 X10.566 Y107.314 E0.33656
G1 X10.052 Y107.085 E0.01763
G1 X9.607 Y106.742 E0.01763
G1 X9.077 Y105.963 E0.02954
G1 X8.892 Y105.043 E0.02942
G1 X8.892 Y15.024 E2.82248
G1 X9.071 Y14.137 E0.02837
G1 X9.536 Y13.432 E0.02649
G1 F8640.000
G1 X10.338 Y12.856 E-0.22784
G1 X11.249 Y12.666 E-0.21496
G1 X12.623 Y12.666 E-0.31720
G1 E-0.04000 F2100.00000
G1 Z0.800 F10800.000
G1 X25.157 Y28.756
G1 Z0.200
G1 E0.80000 F2100.00000
G1 F1200.000
G1 X66.731 Y28.756 E1.30353
G1 X66.731 Y34.799 E0.18947
G1 X66.804 Y34.496 E0.00975
G1 X66.931 Y34.127 E0.01227
G1 X67.070 Y33.821 E0.01052
G1 X67.267 Y33.480 E0.01235
G1 X67.499 Y33.161 E0.01235
G1 X67.719 Y32.912 E0.01044
G1 X67.961 Y32.683 E0.01044
G1 X68.271 Y32.440 E0.01235
G1 X68.608 Y32.230 E0.01243
G1 X68.962 Y32.057 E0.01235
G1 X69.276 Y31.940 E0.01052
G1 X69.654 Y31.839 E0.01227
G1 X69.985 Y31.783 E0.01052
G1 X70.378 Y31.756 E0.01235
G1 X70.774 Y31.770 E0.01243
G1 X71.164 Y31.824 E0.01235
G1 X71.491 Y31.903 E0.01052
G1 X71.861 Y32.030 E0.01227
G1 X72.166 Y32.169 E0.01052
G1 X72.507 Y32.366 E0.01235
G1 X72.826 Y32.598 E0.01235
G1 X73.075 Y32.818 E0.01044
G1 X73.304 Y33.060 E0.01044
G1 X73.547 Y33.370 E0.01235
G1 X73.754 Y33.702 E0.01226
G1 X73.905 Y34.005 E0.01061
G1 X74.047 Y34.372 E0.01236
G1 X74.148 Y34.753 E0.01235
G1 X74.204 Y35.084 E0.01052
G1 X74.231 Y35.474 E0.01227
G1 X74.222 Y35.810 E0.01052
G1 X74.175 Y36.198 E0.01227
G1 X74.102 Y36.526 E0.01052
G1 X73.980 Y36.900 E0.01235
G1 X73.820 Y37.260 E0.01235
G1 X73.655 Y37.552 E0.01052
G1 X73.429 Y37.875 E0.01235
G1 X73.171 Y38.172 E0.01235
G1 X72.927 Y38.403 E0.01052
G1 X72.617 Y38.646 E0.01235
G1 X72.280 Y38.856 E0.01243
G1 X71.926 Y39.029 E0.01235
G1 X71.612 Y39.146 E0.01052
G1 X71.234 Y39.247 E0.01227
G1 X70.903 Y39.303 E0.01052
G1 X70.513 Y39.330 E0.01227
G1 X70.177 Y39.321 E0.01052
G1 X69.789 Y39.274 E0.01227
G1 X69.461 Y39.201 E0.01052
G1 X69.087 Y39.079 E0.01235
G1 X68.724 Y38.918 E0.01243
G1 X68.383 Y38.721 E0.01235
G1 X68.110 Y38.526 E0.01052
G1 X67.815 Y38.269 E0.01227
G1 X67.584 Y38.026 E0.01052
G1 X67.341 Y37.716 E0.01235
G1 X67.132 Y37.382 E0.01235
G1 X66.983 Y37.081 E0.01052
G1 X66.842 Y36.716 E0.01228
G1 X66.731 Y36.270 E0.01440
G1 X66.731 Y92.808 E1.77270
G1 X66.786 Y92.560 E0.00795
G1 X66.908 Y92.186 E0.01235
G1 X67.068 Y91.826 E0.01235
G1 X67.233 Y91.534 E0.01052
G1 X67.457 Y91.213 E0.01226
G1 X67.717 Y90.914 E0.01244
G1 X67.961 Y90.683 E0.01053
G1 X68.271 Y90.440 E0.01235
G1 X68.605 Y90.231 E0.01235
G1 X68.906 Y90.082 E0.01052
G1 X69.271 Y89.941 E0.01227
G1 X69.594 Y89.852 E0.01052
G1 X69.982 Y89.783 E0.01235
G1 X70.378 Y89.756 E0.01243
G1 X70.774 Y89.770 E0.01243
G1 X71.167 Y89.825 E0.01243
G1 X71.546 Y89.919 E0.01226
G1 X71.863 Y90.031 E0.01053
G1 X72.166 Y90.169 E0.01045
G1 X72.507 Y90.366 E0.01235
G1 X72.826 Y90.598 E0.01235
G1 X73.075 Y90.818 E0.01044
G1 X73.304 Y91.060 E0.01044
G1 X73.547 Y91.370 E0.01235
G1 X73.755 Y91.704 E0.01234
G1 X73.928 Y92.058 E0.01235
G1 X74.047 Y92.375 E0.01061
G1 X74.148 Y92.753 E0.01227
G1 X74.204 Y93.084 E0.01052
G1 X74.231 Y93.474 E0.01227
G1 X74.222 Y93.810 E0.01052
G1 X74.175 Y94.198 E0.01227
G1 X74.102 Y94.526 E0.01052
G1 X73.980 Y94.900 E0.01235
G1 X73.820 Y95.260 E0.01235
G1 X73.655 Y95.552 E0.01052
G1 X73.429 Y95.875 E0.01235
G1 X73.171 Y96.172 E0.01235
G1 X72.927 Y96.403 E0.01052
G1 X72.617 Y96.646 E0.01235
G1 X72.283 Y96.855 E0.01235
G1 X71.982 Y97.004 E0.01052
G1 X71.617 Y97.145 E0.01227
G1 X71.294 Y97.234 E0.01052
G1 X70.906 Y97.303 E0.01235
G1 X70.510 Y97.330 E0.01243
G1 X70.114 Y97.316 E0.01243
G1 X69.724 Y97.262 E0.01235
G1 X69.398 Y97.183 E0.01052
G1 X69.027 Y97.056 E0.01227
G1 X68.722 Y96.917 E0.01052
G1 X68.381 Y96.720 E0.01235
G1 X68.062 Y96.488 E0.01235
G1 X67.813 Y96.268 E0.01044
G1 X67.584 Y96.026 E0.01044
G1 X67.341 Y95.716 E0.01235
G1 X67.132 Y95.382 E0.01235
G1 X66.983 Y95.081 E0.01052
G1 X66.842 Y94.716 E0.01227
G1 X66.731 Y94.270 E0.01440
G1 X66.731 Y98.330 E0.12730
G1 X25.157 Y98.330 E1.30353
G1 X25.157 Y94.278 E0.12704
G1 X25.102 Y94.526 E0.00795
G1 X24.980 Y94.900 E0.01235
G1 X24.820 Y95.260 E0.01235
G1 X24.655 Y95.552 E0.01052
G1 X24.429 Y95.875 E0.01235
G1 X24.170 Y96.172 E0.01235
G1 X23.927 Y96.403 E0.01052
G1 X23.617 Y96.646 E0.01235
G1 X23.283 Y96.855 E0.01235
G1 X22.982 Y97.004 E0.01052
G1 X22.617 Y97.145 E0.01227
G1 X22.294 Y97.234 E0.01052
G1 X21.906 Y97.303 E0.01235
G1 X21.510 Y97.330 E0.01243
G1 X21.114 Y97.316 E0.01243
G1 X20.721 Y97.261 E0.01243
G1 X20.339 Y97.166 E0.01235
G1 X20.025 Y97.055 E0.01044
G1 X19.722 Y96.917 E0.01044
G1 X19.381 Y96.720 E0.01235
G1 X19.062 Y96.488 E0.01235
G1 X18.813 Y96.268 E0.01044
G1 X18.584 Y96.026 E0.01044
G1 X18.341 Y95.716 E0.01235
G1 X18.132 Y95.382 E0.01235
G1 X17.983 Y95.081 E0.01052
G1 X17.842 Y94.716 E0.01227
G1 X17.753 Y94.393 E0.01052
G1 X17.684 Y94.005 E0.01235
G1 X17.657 Y93.609 E0.01243
G1 X17.670 Y93.215 E0.01235
G1 X17.714 Y92.883 E0.01052
G1 X17.802 Y92.504 E0.01218
G1 X17.909 Y92.183 E0.01061
G1 X18.068 Y91.826 E0.01228
G1 X18.233 Y91.534 E0.01052
G1 X18.457 Y91.213 E0.01226
G1 X18.717 Y90.914 E0.01244
G1 X18.961 Y90.683 E0.01053
G1 X19.271 Y90.440 E0.01235
G1 X19.605 Y90.231 E0.01235
G1 X19.906 Y90.082 E0.01052
G1 X20.271 Y89.941 E0.01227
G1 X20.594 Y89.852 E0.01052
G1 X20.982 Y89.783 E0.01235
G1 X21.378 Y89.756 E0.01243
G1 X21.774 Y89.770 E0.01243
G1 X22.164 Y89.824 E0.01235
G1 X22.491 Y89.903 E0.01052
G1 X22.861 Y90.030 E0.01227
G1 X23.166 Y90.169 E0.01052
G1 X23.507 Y90.366 E0.01235
G1 X23.826 Y90.598 E0.01235
G1 X24.075 Y90.818 E0.01044
G1 X24.304 Y91.060 E0.01044
G1 X24.547 Y91.370 E0.01235
G1 X24.755 Y91.704 E0.01234
G1 X24.928 Y92.058 E0.01235
G1 X25.047 Y92.375 E0.01061
G1 X25.157 Y92.805 E0.01391
G1 X25.157 Y36.278 E1.77235
G1 X25.102 Y36.526 E0.00795
G1 X24.980 Y36.900 E0.01235
G1 X24.820 Y37.260 E0.01235
G1 X24.655 Y37.552 E0.01052
G1 X24.429 Y37.875 E0.01235
G1 X24.171 Y38.172 E0.01235
G1 X23.927 Y38.403 E0.01052
G1 X23.617 Y38.646 E0.01235
G1 X23.280 Y38.856 E0.01243
G1 X22.924 Y39.030 E0.01243
G1 X22.554 Y39.164 E0.01235
G1 X22.232 Y39.248 E0.01044
G1 X21.903 Y39.303 E0.01044
G1 X21.513 Y39.330 E0.01227
G1 X21.177 Y39.321 E0.01052
G1 X20.789 Y39.274 E0.01227
G1 X20.461 Y39.201 E0.01052
G1 X20.087 Y39.079 E0.01235
G1 X19.724 Y38.918 E0.01243
G1 X19.381 Y38.720 E0.01243
G1 X19.062 Y38.488 E0.01235
G1 X18.813 Y38.268 E0.01044
G1 X18.584 Y38.026 E0.01044
G1 X18.341 Y37.716 E0.01235
G1 X18.132 Y37.382 E0.01235
G1 X17.983 Y37.081 E0.01052
G1 X17.842 Y36.716 E0.01227
G1 X17.752 Y36.390 E0.01061
G1 X17.684 Y36.004 E0.01226
G1 X17.657 Y35.609 E0.01243
G1 X17.670 Y35.215 E0.01235
G1 X17.714 Y34.883 E0.01052
G1 X17.802 Y34.502 E0.01226
G1 X17.931 Y34.127 E0.01244
G1 X18.070 Y33.821 E0.01053
G1 X18.267 Y33.480 E0.01235
G1 X18.499 Y33.161 E0.01235
G1 X18.721 Y32.910 E0.01052
G1 X19.009 Y32.641 E0.01235
G1 X19.324 Y32.404 E0.01235
G1 X19.610 Y32.229 E0.01052
G1 X19.962 Y32.057 E0.01227
G1 X20.276 Y31.940 E0.01052
G1 X20.654 Y31.839 E0.01227
G1 X20.985 Y31.783 E0.01052
G1 X21.378 Y31.756 E0.01235
G1 X21.774 Y31.770 E0.01243
G1 X22.164 Y31.824 E0.01235
G1 X22.491 Y31.903 E0.01052
G1 X22.861 Y32.030 E0.01227
G1 X23.166 Y32.169 E0.01052
G1 X23.507 Y32.366 E0.01235
G1 X23.826 Y32.598 E0.01235
G1 X24.075 Y32.818 E0.01044
G1 X24.304 Y33.060 E0.01044
G1 X24.547 Y33.370 E0.01235
G1 X24.754 Y33.702 E0.01226
G1 X24.905 Y34.005 E0.01061
G1 X25.047 Y34.372 E0.01236
G1 X25.157 Y34.805 E0.01399
G1 X25.157 Y28.816 E0.18777
G1 F8640.000
G1 X28.448 Y28.811 E-0.76000
G1 E-0.04000 F2100.00000
G1 Z0.800 F10800.000
G1 X68.488 Y90.749
G1 Z0.200
G1 E0.80000 F2100.00000
G1 F1200.000
G1 X68.790 Y90.561 E0.01116
G1 X69.058 Y90.427 E0.00939
G1 X69.389 Y90.300 E0.01113
G1 X69.678 Y90.220 E0.00939
G1 X70.028 Y90.158 E0.01116
G1 X70.385 Y90.133 E0.01119
G1 X70.741 Y90.146 E0.01119
G1 X71.095 Y90.195 E0.01119
G1 X71.438 Y90.281 E0.01108
G1 X71.721 Y90.381 E0.00944
G1 X71.993 Y90.505 E0.00936
G1 X72.301 Y90.683 E0.01116
G1 X72.589 Y90.892 E0.01116
G1 X72.813 Y91.090 E0.00936
G1 X73.018 Y91.306 E0.00936
G1 X73.238 Y91.587 E0.01116
G1 X73.425 Y91.887 E0.01110
G1 X73.582 Y92.207 E0.01116
G1 X73.688 Y92.490 E0.00947
G1 X73.780 Y92.833 E0.01113
G1 X73.829 Y93.128 E0.00939
G1 X73.854 Y93.483 E0.01114
G1 X73.846 Y93.782 E0.00939
G1 X73.803 Y94.134 E0.01113
G1 X73.738 Y94.427 E0.00939
G1 X73.628 Y94.765 E0.01116
G1 X73.483 Y95.090 E0.01116
G1 X73.336 Y95.351 E0.00939
G1 X73.131 Y95.643 E0.01117
G1 X72.898 Y95.911 E0.01116
G1 X72.681 Y96.117 E0.00939
G1 X72.400 Y96.337 E0.01116
G1 X72.098 Y96.525 E0.01116
G1 X71.830 Y96.659 E0.00939
G1 X71.499 Y96.786 E0.01114
G1 X71.210 Y96.866 E0.00938
G1 X70.860 Y96.928 E0.01116
G1 X70.504 Y96.953 E0.01119
G1 X70.147 Y96.940 E0.01119
G1 X69.794 Y96.891 E0.01116
G1 X69.503 Y96.821 E0.00939
G1 X69.167 Y96.705 E0.01113
G1 X68.895 Y96.581 E0.00939
G1 X68.587 Y96.403 E0.01116
G1 X68.299 Y96.194 E0.01116
G1 X68.075 Y95.996 E0.00936
G1 X67.870 Y95.780 E0.00936
G1 X67.650 Y95.499 E0.01116
G1 X67.462 Y95.197 E0.01116
G1 X67.328 Y94.929 E0.00939
G1 X67.201 Y94.598 E0.01113
G1 X67.120 Y94.307 E0.00947
G1 X67.059 Y93.958 E0.01108
G1 X67.034 Y93.603 E0.01119
G1 X67.047 Y93.247 E0.01116
G1 X67.086 Y92.951 E0.00936
G1 X67.150 Y92.659 E0.00936
G1 X67.260 Y92.321 E0.01116
G1 X67.405 Y91.996 E0.01116
G1 X67.552 Y91.735 E0.00938
G1 X67.755 Y91.446 E0.01108
G1 X67.990 Y91.175 E0.01125
G1 X68.207 Y90.969 E0.00939
G1 X68.441 Y90.786 E0.00928
G1 X68.458 Y90.395 F10800.000
G1 F8640.000
G1 X68.790 Y90.561 E-0.09600
G1 X69.058 Y90.427 E-0.06912
G1 X69.389 Y90.300 E-0.08200
G1 X69.678 Y90.220 E-0.06912
G1 X70.028 Y90.158 E-0.08221
G1 X70.385 Y90.133 E-0.08242
G1 X70.741 Y90.146 E-0.08242
G1 X71.095 Y90.195 E-0.08242
G1 X71.438 Y90.281 E-0.08157
G1 X71.571 Y90.328 E-0.03272
G1 E-0.04000 F2100.00000
G1 Z0.800 F10800.000
G1 X24.852 Y93.452
G1 Z0.200
G1 E0.80000 F2100.00000
G1 F1200.000
G1 X24.846 Y93.785 E0.01042
G1 X24.803 Y94.134 E0.01105
G1 X24.738 Y94.427 E0.00938
G1 X24.628 Y94.765 E0.01116
G1 X24.483 Y95.090 E0.01116
G1 X24.336 Y95.351 E0.00939
G1 X24.131 Y95.643 E0.01117
G1 X23.898 Y95.911 E0.01116
G1 X23.681 Y96.117 E0.00939
G1 X23.400 Y96.337 E0.01116
G1 X23.098 Y96.525 E0.01116
G1 X22.830 Y96.659 E0.00939
G1 X22.499 Y96.786 E0.01114
G1 X22.210 Y96.866 E0.00938
G1 X21.860 Y96.928 E0.01116
G1 X21.504 Y96.953 E0.01119
G1 X21.147 Y96.940 E0.01119
G1 X20.793 Y96.891 E0.01119
G1 X20.448 Y96.804 E0.01116
G1 X20.167 Y96.705 E0.00936
G1 X19.895 Y96.581 E0.00936
G1 X19.587 Y96.403 E0.01116
G1 X19.299 Y96.194 E0.01116
G1 X19.075 Y95.996 E0.00936
G1 X18.870 Y95.780 E0.00936
G1 X18.650 Y95.499 E0.01117
G1 X18.462 Y95.197 E0.01116
G1 X18.328 Y94.929 E0.00939
G1 X18.201 Y94.598 E0.01113
G1 X18.121 Y94.309 E0.00939
G1 X18.059 Y93.959 E0.01117
G1 X18.034 Y93.603 E0.01119
G1 X18.047 Y93.247 E0.01116
G1 X18.086 Y92.950 E0.00938
G1 X18.165 Y92.607 E0.01105
G1 X18.261 Y92.320 E0.00947
G1 X18.405 Y91.996 E0.01114
G1 X18.552 Y91.735 E0.00938
G1 X18.755 Y91.446 E0.01108
G1 X18.990 Y91.175 E0.01125
G1 X19.207 Y90.969 E0.00939
G1 X19.488 Y90.749 E0.01116
G1 X19.790 Y90.561 E0.01116
G1 X20.058 Y90.427 E0.00939
G1 X20.389 Y90.300 E0.01113
G1 X20.678 Y90.220 E0.00939
G1 X21.028 Y90.158 E0.01116
G1 X21.385 Y90.133 E0.01119
G1 X21.741 Y90.146 E0.01119
G1 X22.094 Y90.195 E0.01116
G1 X22.385 Y90.265 E0.00939
G1 X22.721 Y90.381 E0.01113
G1 X22.993 Y90.505 E0.00939
G1 X23.301 Y90.683 E0.01116
G1 X23.589 Y90.892 E0.01116
G1 X23.813 Y91.090 E0.00936
G1 X24.018 Y91.306 E0.00936
G1 X24.238 Y91.587 E0.01116
G1 X24.425 Y91.887 E0.01111
G1 X24.582 Y92.207 E0.01116
G1 X24.688 Y92.490 E0.00947
G1 X24.780 Y92.834 E0.01117
G1 X24.836 Y93.186 E0.01116
G1 X24.848 Y93.392 E0.00649
G1 X25.144 Y93.611 F10800.000
G1 F8640.000
G1 X24.846 Y93.785 E-0.09058
G1 X24.803 Y94.134 E-0.08136
G1 X24.738 Y94.427 E-0.06911
G1 X24.628 Y94.765 E-0.08221
G1 X24.483 Y95.090 E-0.08221
G1 X24.336 Y95.351 E-0.06912
G1 X24.131 Y95.643 E-0.08223
G1 X23.898 Y95.911 E-0.08220
G1 X23.681 Y96.117 E-0.06912
G1 X23.504 Y96.256 E-0.05187
G1 E-0.04000 F2100.00000
G1 Z0.800 F10800.000
G1 X21.504 Y38.953
G1 Z0.200
G1 E0.80000 F2100.00000
G1 F1200.000
G1 X21.205 Y38.945 E0.00939
G1 X20.853 Y38.902 E0.01113
G1 X20.561 Y38.837 E0.00939
G1 X20.222 Y38.727 E0.01116
G1 X19.896 Y38.582 E0.01119
G1 X19.587 Y38.403 E0.01119
G1 X19.299 Y38.194 E0.01116
G1 X19.075 Y37.996 E0.00936
G1 X18.870 Y37.780 E0.00936
G1 X18.650 Y37.499 E0.01117
G1 X18.462 Y37.197 E0.01116
G1 X18.328 Y36.929 E0.00939
G1 X18.201 Y36.598 E0.01114
G1 X18.120 Y36.307 E0.00947
G1 X18.059 Y35.958 E0.01108
G1 X18.034 Y35.603 E0.01119
G1 X18.047 Y35.247 E0.01116
G1 X18.086 Y34.950 E0.00938
G1 X18.165 Y34.606 E0.01108
G1 X18.282 Y34.266 E0.01125
G1 X18.406 Y33.994 E0.00939
G1 X18.584 Y33.686 E0.01116
G1 X18.793 Y33.398 E0.01116
G1 X18.992 Y33.173 E0.00939
G1 X19.252 Y32.931 E0.01116
G1 X19.536 Y32.716 E0.01116
G1 X19.792 Y32.560 E0.00939
G1 X20.111 Y32.404 E0.01113
G1 X20.391 Y32.299 E0.00939
G1 X20.734 Y32.207 E0.01113
G1 X21.029 Y32.158 E0.00939
G1 X21.385 Y32.133 E0.01116
G1 X21.741 Y32.146 E0.01119
G1 X22.094 Y32.195 E0.01117
G1 X22.385 Y32.265 E0.00939
G1 X22.721 Y32.381 E0.01113
G1 X22.993 Y32.505 E0.00939
G1 X23.301 Y32.683 E0.01116
G1 X23.589 Y32.892 E0.01116
G1 X23.813 Y33.090 E0.00936
G1 X24.018 Y33.306 E0.00936
G1 X24.238 Y33.587 E0.01116
G1 X24.425 Y33.886 E0.01108
G1 X24.560 Y34.157 E0.00947
G1 X24.687 Y34.489 E0.01117
G1 X24.780 Y34.834 E0.01119
G1 X24.836 Y35.186 E0.01116
G1 X24.854 Y35.484 E0.00936
G1 X24.846 Y35.785 E0.00944
G1 X24.803 Y36.134 E0.01105
G1 X24.738 Y36.427 E0.00938
G1 X24.628 Y36.765 E0.01116
G1 X24.483 Y37.090 E0.01116
G1 X24.336 Y37.351 E0.00939
G1 X24.131 Y37.643 E0.01116
G1 X23.898 Y37.911 E0.01116
G1 X23.681 Y38.117 E0.00939
G1 X23.400 Y38.337 E0.01117
G1 X23.097 Y38.526 E0.01119
G1 X22.777 Y38.682 E0.01119
G1 X22.442 Y38.804 E0.01116
G1 X22.153 Y38.879 E0.00936
